X:1
T:Polka
T:Polka
L:1/8
M:2/4
K:D
V:1 treble 
V:1
 A/B/ |:"D" AF Ad | f2 fe/f/ | ed/e/ dF | A3 A |"A7" BA ^GA | c3 B/c/ |"D" BA FA | d4 :: %9
[K:G]"G" D[DB] D[DB] | D[DB] [DB]>c |"D7" BA A>B |"G" AG G2 |"G" D[DB] D[DB] | D[DB] [DB]>c | %15
"D7" BA d>F |"G" GG G2 :| %17

